!!!OTL: THAELCHEN SANFT DICH NEIGEND
!!!ARE: Europa, Mitteleuropa, Deutschland
!!!SCT: F0296
!!!YEM: Copyright 1995, estate of Helmut Schaffrath.
**kern
*ICvox
*Ivox
*M2/4
*k[f#c#g#d#]
*E:
=1
{8b
8b
8b
8f#
=2
8g#
8e
8e
8r}
=3
{8b
8b
8b
8f#
=4
8g#
8e
8e
8r}
=5
{8f#
8f#
16g#
16a
16b
16g#
=6
4.f#
8r}
=7
{8a
8a
8f#
8f#
=8
4b
4g#}
=9
{8a
8a
8f#
8f#
=10
4.b
8g#}
=11
{8e
8f#
16g#
16a
8f#
=12
4.e
8r}
==
!!!AGN: Jugend - Lied, Belehrung, Moral; Natur
!!!ONB: ESAC (Essen Associative Code) Database: FINK
!!!AMT: simple duple
!!!AIN: vox
!!!EED: Helmut Schaffrath
!!!EEV: 1.0
*-
